www/assets/icons/villa.svg

<svg xmlns="http://www.w3.org/2000/svg" width="24" height="24" viewBox="0 0 24 24" fill='currentColor'><path d="M7 21H3V8l13-5v7H7zm12-11c-1.1 0-2 .9-2 2H9v9h5v-5h2v5h5v-9c0-1.1-.9-2-2-2"/></svg>

<svg width="24" height="24" viewBox="0 0 24 24" xmlns="http://www.w3.org/2000/svg" fill='currentColor'><path d="M7 21H3V8L16 3V10H7V21ZM19 10C17.9 10 17 10.9 17 12H9V21H14V16H16V21H21V12C21 10.9 20.1 10 19 10Z"/></svg>
